src/assets/images/icons/film.svg

<svg width="24" height="24" viewBox="0 0 24 24" fill="none" xmlns="http://www.w3.org/2000/svg">
<path d="M7 2V22M17 2V22M2 12H22M2 7H7M2 17H7M17 17H22M17 7H22M4.18 2H19.82C21.024 2 22 2.97602 22 4.18V19.82C22 21.024 21.024 22 19.82 22H4.18C2.97602 22 2 21.024 2 19.82V4.18C2 2.97602 2.97602 2 4.18 2Z" stroke="#181D27" stroke-width="2" stroke-linecap="round" stroke-linejoin="round"/>
</svg>

<svg xmlns="http://www.w3.org/2000/svg" fill="none" viewBox="0 0 24 24"><path stroke="#181D27" stroke-linecap="round" stroke-linejoin="round" stroke-width="2" d="M7 2v20M17 2v20M2 12h20M2 7h5M2 17h5m10 0h5M17 7h5M4.18 2h15.64A2.18 2.18 0 0 1 22 4.18v15.64A2.18 2.18 0 0 1 19.82 22H4.18A2.18 2.18 0 0 1 2 19.82V4.18A2.18 2.18 0 0 1 4.18 2"/></svg>
